Catalina-dark/actions/16/colorneg.svg

<?xml version="1.0" encoding="UTF-8" standalone="no"?>
<svg
   xmlns:dc="http://purl.org/dc/elements/1.1/"
   xmlns:cc="http://creativecommons.org/ns#"
   xmlns:rdf="http://www.w3.org/1999/02/22-rdf-syntax-ns#"
   xmlns:svg="http://www.w3.org/2000/svg"
   xmlns="http://www.w3.org/2000/svg"
   xmlns:sodipodi="http://sodipodi.sourceforge.net/DTD/sodipodi-0.dtd"
   xmlns:inkscape="http://www.inkscape.org/namespaces/inkscape"
   width="16"
   height="16"
   viewBox="0 0 16 16"
   version="1.1"
   id="svg7"
   sodipodi:docname="colorneg.svg"
   inkscape:version="0.92.4 5da689c313, 2019-01-14">
  <metadata
     id="metadata11">
    <rdf:RDF>
      <cc:Work
         rdf:about="">
        <dc:format>image/svg+xml</dc:format>
        <dc:type
           rdf:resource="http://purl.org/dc/dcmitype/StillImage" />
      </cc:Work>
    </rdf:RDF>
  </metadata>
  <sodipodi:namedview
     pagecolor="#ffffff"
     bordercolor="#666666"
     borderopacity="1"
     objecttolerance="10"
     gridtolerance="10"
     guidetolerance="10"
     inkscape:pageopacity="0"
     inkscape:pageshadow="2"
     inkscape:window-width="715"
     inkscape:window-height="480"
     id="namedview9"
     showgrid="false"
     inkscape:zoom="14.75"
     inkscape:cx="-0.54237288"
     inkscape:cy="8"
     inkscape:window-x="0"
     inkscape:window-y="26"
     inkscape:window-maximized="0"
     inkscape:current-layer="svg7" />
  <defs
     id="defs3">
    <style
       id="current-color-scheme"
       type="text/css">
   .ColorScheme-Text { color:#5c616c; } .ColorScheme-Highlight { color:#5294e2; }
  </style>
  </defs>
  <path
     style="fill:#f1f6f8;fill-opacity:0.8509804"
     class="ColorScheme-Text"
     d="M 0 0.0390625 L 0 16.039062 L 16 16.039062 L 16 0.0390625 L 0 0.0390625 z M 15 1.0390625 L 15 15.039062 L 1 15.039062 L 4.46875 11.572266 C 5.37385 12.477266 6.619 13.041016 8 13.041016 C 10.7614 13.041016 13 10.802416 13 8.0410156 C 13 6.6603156 12.43612 5.4145656 11.53125 4.5097656 L 4.46875 11.570312 C 3.56385 10.665313 3 9.4200625 3 8.0390625 C 3 5.2776625 5.2386 3.0390625 8 3.0390625 C 9.3807 3.0390625 10.62645 3.6048956 11.53125 4.5097656 L 15 1.0390625 z"
     id="path5" />
</svg>

<svg width="16" height="16" version="1.1" viewBox="0 0 16 16" xmlns="http://www.w3.org/2000/svg">
<defs>
<style id="current-color-scheme" type="text/css">.ColorScheme-Text { color:#5c616c; } .ColorScheme-Highlight { color:#5294e2; }</style>
</defs>
<path class="ColorScheme-Text" d="m0 0.039062v16h16v-16h-16zm15 1v14h-14l3.4688-3.4668c0.9051 0.905 2.1502 1.4688 3.5312 1.4688 2.7614 0 5-2.2386 5-5 0-1.3807-0.56388-2.6264-1.4688-3.5312l-7.0625 7.0605c-0.9049-0.905-1.4688-2.1502-1.4688-3.5312 0-2.7614 2.2386-5 5-5 1.3807 0 2.6264 0.56583 3.5312 1.4707l3.4688-3.4707z" fill="#f1f6f8" fill-opacity=".85098"/>
</svg>
